docs/svgs/splitscreen-outlined-filled.svg

<?xml version="1.0" encoding="UTF-8"?>
<svg xmlns="http://www.w3.org/2000/svg" xmlns:xlink="http://www.w3.org/1999/xlink" width="24px" height="24px" viewBox="0 0 24 24" version="1.1">
<g id="surface1">
<path style=" stroke:none;fill-rule:nonzero;fill:rgb(0%,0%,0%);fill-opacity:1;" d="M 6 11 C 5.449219 11 4.980469 10.804688 4.589844 10.410156 C 4.195312 10.019531 4 9.550781 4 9 L 4 4 C 4 3.449219 4.195312 2.980469 4.589844 2.585938 C 4.980469 2.195312 5.449219 2 6 2 L 18 2 C 18.550781 2 19.019531 2.195312 19.414062 2.585938 C 19.804688 2.980469 20 3.449219 20 4 L 20 9 C 20 9.550781 19.804688 10.019531 19.414062 10.410156 C 19.019531 10.804688 18.550781 11 18 11 Z M 6 22 C 5.449219 22 4.980469 21.804688 4.589844 21.414062 C 4.195312 21.019531 4 20.550781 4 20 L 4 15 C 4 14.449219 4.195312 13.980469 4.589844 13.585938 C 4.980469 13.195312 5.449219 13 6 13 L 18 13 C 18.550781 13 19.019531 13.195312 19.414062 13.585938 C 19.804688 13.980469 20 14.449219 20 15 L 20 20 C 20 20.550781 19.804688 21.019531 19.414062 21.414062 C 19.019531 21.804688 18.550781 22 18 22 Z M 6 22 "/>
</g>
</svg>

<svg xmlns="http://www.w3.org/2000/svg" height="24" width="24"><path d="M6 11q-.825 0-1.412-.588Q4 9.825 4 9V4q0-.825.588-1.413Q5.175 2 6 2h12q.825 0 1.413.587Q20 3.175 20 4v5q0 .825-.587 1.412Q18.825 11 18 11Zm0 11q-.825 0-1.412-.587Q4 20.825 4 20v-5q0-.825.588-1.413Q5.175 13 6 13h12q.825 0 1.413.587Q20 14.175 20 15v5q0 .825-.587 1.413Q18.825 22 18 22Z"/></svg>
